packages/core/src/svgs/tokens/branded/EUNO.svg

<svg width="24" height="24" viewBox="0 0 24 24" fill="none" xmlns="http://www.w3.org/2000/svg">
<path d="M4.29455 7.15649H17.3826C17.5591 7.15674 17.7338 7.1208 17.8958 7.05087C18.058 6.98093 18.2039 6.87851 18.3248 6.74991L20.4223 4.57501L20.6417 4.34914C21.4806 3.48435 20.8869 2 19.706 2H4.29455C3.93959 2 3.60401 2.14199 3.3523 2.40014C3.10708 2.65829 2.96509 3.01323 2.96509 3.37464V5.78831C2.96509 6.14972 3.10708 6.49822 3.3523 6.75635C3.60401 7.0145 3.93959 7.16295 4.29455 7.16295V7.15649Z" fill="url(#paint0_linear_364_13754)"/>
<path d="M19.706 9.7381H4.29455C3.94192 9.739 3.60369 9.87799 3.3523 10.1253C3.10717 10.3675 2.96795 10.697 2.96509 11.0417V20.6964C2.96494 20.8682 2.99912 21.0383 3.06562 21.1969C3.1321 21.3553 3.22958 21.499 3.3523 21.6193C3.60401 21.8645 3.93959 22 4.29455 22H12.3875C12.7424 22 13.0779 21.8645 13.3297 21.6128L15.653 19.3281C16.492 18.5085 15.9047 17.4824 14.7172 17.4824H8.12802V14.2427H17.3761C17.731 14.2427 18.0667 14.1007 18.3183 13.8554L20.4223 12.1839L20.6417 11.971C21.4806 11.1449 20.8869 9.7381 19.706 9.7381Z" fill="url(#paint1_linear_364_13754)"/>
<defs>
<linearGradient id="paint0_linear_364_13754" x1="21.0353" y1="20.6249" x2="3.12805" y2="22.547" gradientUnits="userSpaceOnUse">
<stop stop-color="#7599F2"/>
<stop offset="1" stop-color="#562CDD"/>
</linearGradient>
<linearGradient id="paint1_linear_364_13754" x1="21.0353" y1="6.80821" x2="5.59174" y2="13.2296" gradientUnits="userSpaceOnUse">
<stop stop-color="#7599F2"/>
<stop offset="1" stop-color="#562CDD"/>
</linearGradient>
</defs>
</svg>

<svg xmlns="http://www.w3.org/2000/svg" width="24" height="24" fill="none" viewBox="0 0 24 24">
    <path fill="url(#EUNO__a)" d="M4.295 7.156h13.088a1.3 1.3 0 0 0 .942-.406l2.097-2.175.22-.226C21.48 3.484 20.887 2 19.706 2H4.295c-.355 0-.691.142-.943.4a1.43 1.43 0 0 0-.387.975v2.413c0 .362.142.71.387.968.252.258.588.407.943.407z"/>
    <path fill="url(#EUNO__b)" d="M19.706 9.738H4.295c-.353.001-.691.14-.943.387a1.3 1.3 0 0 0-.387.917v9.654a1.3 1.3 0 0 0 .387.923c.252.245.588.381.943.381h8.092c.355 0 .69-.136.943-.387l2.323-2.285c.839-.82.252-1.846-.936-1.846H8.128v-3.24h9.248c.355 0 .69-.141.942-.387l2.104-1.671.22-.213c.839-.826.245-2.233-.936-2.233"/>
    <defs>
        <linearGradient id="EUNO__a" x1="21.035" x2="3.128" y1="20.625" y2="22.547" gradientUnits="userSpaceOnUse">
            <stop stop-color="#7599F2"/>
            <stop offset="1" stop-color="#562CDD"/>
        </linearGradient>
        <linearGradient id="EUNO__b" x1="21.035" x2="5.592" y1="6.808" y2="13.23" gradientUnits="userSpaceOnUse">
            <stop stop-color="#7599F2"/>
            <stop offset="1" stop-color="#562CDD"/>
        </linearGradient>
    </defs>
</svg>
